images/search.svg

<?xml version="1.0" encoding="iso-8859-1"?>
<!-- Generator: Adobe Illustrator 19.0.0, SVG Export Plug-In . SVG Version: 6.00 Build 0)  -->
<svg version="1.1" id="Capa_1" xmlns="http://www.w3.org/2000/svg" xmlns:xlink="http://www.w3.org/1999/xlink" x="0px" y="0px"
	 viewBox="0 0 487.95 487.95" style="enable-background:new 0 0 487.95 487.95;" xml:space="preserve">
<g>
	<g>
		<path d="M481.8,453l-140-140.1c27.6-33.1,44.2-75.4,44.2-121.6C386,85.9,299.5,0.2,193.1,0.2S0,86,0,191.4s86.5,191.1,192.9,191.1
			c45.2,0,86.8-15.5,119.8-41.4l140.5,140.5c8.2,8.2,20.4,8.2,28.6,0C490,473.4,490,461.2,481.8,453z M41,191.4
			c0-82.8,68.2-150.1,151.9-150.1s151.9,67.3,151.9,150.1s-68.2,150.1-151.9,150.1S41,274.1,41,191.4z"/>
	</g>
</g>
<g>
</g>
<g>
</g>
<g>
</g>
<g>
</g>
<g>
</g>
<g>
</g>
<g>
</g>
<g>
</g>
<g>
</g>
<g>
</g>
<g>
</g>
<g>
</g>
<g>
</g>
<g>
</g>
<g>
</g>
</svg>

<?xml version="1.0" encoding="UTF-8" standalone="no"?>
<!DOCTYPE svg PUBLIC "-//W3C//DTD SVG 1.1//EN" "http://www.w3.org/Graphics/SVG/1.1/DTD/svg11.dtd">
<svg width="100%" height="100%" viewBox="0 0 488 488" version="1.1" xmlns="http://www.w3.org/2000/svg" xmlns:xlink="http://www.w3.org/1999/xlink" xml:space="preserve" xmlns:serif="http://www.serif.com/" style="fill-rule:evenodd;clip-rule:evenodd;stroke-linejoin:round;stroke-miterlimit:2;">
    <g>
        <g>
            <path d="M481.8,453L341.8,312.9C369.4,279.8 386,237.5 386,191.3C386,85.9 299.5,0.2 193.1,0.2C86.7,0.2 0,86 0,191.4C0,296.8 86.5,382.5 192.9,382.5C238.1,382.5 279.7,367 312.7,341.1L453.2,481.6C461.4,489.8 473.6,489.8 481.8,481.6C490,473.4 490,461.2 481.8,453ZM41,191.4C41,108.6 109.2,41.3 192.9,41.3C276.6,41.3 344.8,108.6 344.8,191.4C344.8,274.2 276.6,341.5 192.9,341.5C109.2,341.5 41,274.1 41,191.4Z" style="fill:white;fill-rule:nonzero;"/>
        </g>
    </g>
</svg>
